X:155
T:Neidod Twm Bach - Little Tom's Leap
M:9/8
L:1/8
Q:120
C:Trad.
R:Slip Jig
K:G
GAB EFE EFE | GAB EFE F2 D | GAB EFE EFE | FGA ABG F2 D:||
||: GAB BcB BcA | GAB BcB d2 B | GAB BcB BAG | FGA ABG F2 D :||
